!!!!SEGMENT: pl-kk--kk-i-322--004_casali-giovanni-battista--credidi-propter-o-domine.krn
!!!cenid: 17xx:2126
!!!COM: Casali, Giovanni Battista
!!!COM-rismid: pe30000607
!!!CDT: 1715-1792/07/06
!!!CNT: Italian
!!!OPR: Credidi propter
!!!OTL: O Domine
!!!OMV: 004
!!!PDT:
!!!AGN: Sacred
!!!SMS-siglum: PL-Kk
!!!SMS-shelfmark: Kk.I.322
!!!SMS-shelfwork: 001-004 M
!!!SMS-variant:
!!!SMS-altvar:
!!!NIFC-rismid: 1001146194
!!!URL-scan: http://repozytorium.nifc.pl/skany/pl-kk-nut--i-322
!!!ONB-nifc: UWAGA: części Credidi: 1. Credidi propter, 2. Calicem salutaris, 3. Vota mea, 4. O Domine, 5. Dirupisti vincula mea, 6. Vota mea, 7. Gloria Patri, 8. Et in saecula saeculorum
!!!key:
**kern	**fb	**kern	**kern	**kern	**kern	**kern	**text
*part6	*	*part5	*part4	*part3	*part2	*part1	*part1
*staff6	*	*staff5	*staff4	*staff3	*staff2	*staff1	*staff1
*Iorgan	*	*Iempty	*Itenor	*Ialto	*Ivox	*Ivox	*
*I"Organo	*	*I"Baſso di Ripieno	*I"Tenore di Ripieno	*I"Alto di Ripieno	*I"Canto di Ripieno	*I"Canto Solo	*
*I'org	*	*I'B rip	*I'T rip	*I'A rip	*I'S rip	*I'S	*
*clefF4	*	*clefF4	*clefC4	*clefC3	*clefC1	*clefC1	*
*k[f#]	*	*k[f#]	*k[f#]	*k[f#]	*k[f#]	*k[f#]	*
*G:	*	*G:	*G:	*G:	*G:	*G:	*
*M3/8	*	*M3/8	*M3/8	*M3/8	*M3/8	*M3/8	*
=1	=1	=1	=1	=1	=1	=1	=1
*all\right	*	*	*	*	*	*all\right	*
!LO:TX:a:t=And.(an)te	!	!	!	!	!	!	!
!LO:TX:a:i:t=Solo	!	!	!	!	!	!	!
!LO:TX:b:t=O Domine	!	!	!	!	!	!	!
!LO:TX:t=P:problem:8\right:global	!	!LO:TX:a:t=Ò Domine Tace	!LO:TX:a:t=Ò Domine Tace	!LO:TX:a:t=Ò Domine Tace	!LO:TX:a:t=O Domine Tace	!LO:TX:a:t=And(ant)e.	!
8G\L	.	4.ryy	4.ryy	4.ryy	4.ryy	8r	.
8G\	.	.	.	.	.	8r	.
!	!	!	!	!	!	!LO:TX:t=P:problem:8\right:global	!
8F#\J	6	.	.	.	.	8dd\	O
=2	=2	=2	=2	=2	=2	=2	=2
8G\L	.	4.ryy	4.ryy	4.ryy	4.ryy	8.b\	Do-
8G\	.	.	.	.	.	.	.
!	!	!	!	!	!	!LO:TX:t=P:problem:16\right:global	!
.	.	.	.	.	.	16cc\	-mi-
8G\J	.	.	.	.	.	8dd\	-ne
=3	=3	=3	=3	=3	=3	=3	=3
!LO:N:vis=4	!	!	!	!	!	!	!
8BB/	6	4.ryy	4.ryy	4.ryy	4.ryy	4g/	qui-
!LO:N:vis=4	!	!	!	!	!	!	!
8BB/	.	.	.	.	.	.	.
!LO:N:vis=4	!	!	!	!	!	!	!
8BB/	.	.	.	.	.	8b\	-a
=4	=4	=4	=4	=4	=4	=4	=4
!	!	!	!	!	!	!LO:TX:t=P:problem:4\right:global	!
8C/L	.	4.ryy	4.ryy	4.ryy	4.ryy	4a\	e-
8C/	6	.	.	.	.	.	.
8C/J	.	.	.	.	.	8a\	-go
=5	=5	=5	=5	=5	=5	=5	=5
!LO:LB:g=original	!	!	!	!	!	!LO:LB:g=original	!
8D/L	.	4.ryy	4.ryy	4.ryy	4.ryy	8a\L	ser-
8D/	.	.	.	.	.	8b\J	.
8D/J	7	.	.	.	.	8cc\	-uus
=6	=6	=6	=6	=6	=6	=6	=6
!LO:TX:t=P:problem:mixedbeam	!	!	!	!	!	!	!
8GG/L	9 4	4.ryy	4.ryy	4.ryy	4.ryy	8cc\	tu-
8G\	8 3	.	.	.	.	8b\	-us
8F#\J	.	.	.	.	.	8r	.
=7	=7	=7	=7	=7	=7	=7	=7
*	*above	*	*	*	*	*	*
8E\L	5	4.ryy	4.ryy	4.ryy	4.ryy	4gg\	e-
8E\	.	.	.	.	.	.	.
8D\J	3	.	.	.	.	8ff#\	-go
=8	=8	=8	=8	=8	=8	=8	=8
!LO:TX:t=P:problem:mixedbeam	!	!	!	!	!	!	!
8C/L	5	4.ryy	4.ryy	4.ryy	4.ryy	4ee^^\	ser-
8c\	.	.	.	.	.	.	.
8B\J	6	.	.	.	.	8dd\	-uus
=9	=9	=9	=9	=9	=9	=9	=9
8A\L	6	4.ryy	4.ryy	4.ryy	4.ryy	4.cc^^\	tu-
8F#\	5	.	.	.	.	.	.
*	*below	*	*	*	*	*	*
8D\J	7	.	.	.	.	.	.
=10	=10	=10	=10	=10	=10	=10	=10
!	!	!	!	!	!	!LO:PB:g=original	!
8G\L	.	4.ryy	4.ryy	4.ryy	4.ryy	4b\	-us
8G\	.	.	.	.	.	.	.
8G\J	.	.	.	.	.	8dd\	et
=11	=11	=11	=11	=11	=11	=11	=11
8A\L	#	4.ryy	4.ryy	4.ryy	4.ryy	16.cc#X\	fi-
!	!	!	!	!	!	!LO:TX:t=P:problem:32\right:global	!
.	.	.	.	.	.	32ee\	-li-
8F#\	6	.	.	.	.	8dd\	-us
8D\J	.	.	.	.	.	8ff#\	an-
=12	=12	=12	=12	=12	=12	=12	=12
!LO:LB:g=original	!	!	!	!	!	!	!
8C#X\L	.	4.ryy	4.ryy	4.ryy	4.ryy	16.ee\LL	-cil-
.	.	.	.	.	.	32gg\JJk	.
8D\	.	.	.	.	.	8ff#\	-lae
8F#\J	.	.	.	.	.	8aa\	an-
=13	=13	=13	=13	=13	=13	=13	=13
4G\	9	4.ryy	4.ryy	4.ryy	4.ryy	8aa\L	-cil-
.	8	.	.	.	.	8b\J	.
8G\	6	.	.	.	.	8gg\	-lae
=14	=14	=14	=14	=14	=14	=14	=14
!	!	!	!	!	!	!LO:LB:g=original	!
8A\L	6 4	4.ryy	4.ryy	4.ryy	4.ryy	16.ff#\LL	tu-
.	.	.	.	.	.	32gg\JJk	.
8A\	5 3#	.	.	.	.	4ee^^\	.
8A\J	.	.	.	.	.	.	.
=15	=15	=15	=15	=15	=15	=15	=15
!LO:TX:t=P:problem:16\right:global	!	!	!	!	!	!	!
16.D\LL	.	4.ryy	4.ryy	4.ryy	4.ryy	4dd\	-ae
!LO:TX:t=P:problem:32\right	!	!	!	!	!	!	!
32E\JK	.	.	.	.	.	.	.
8F#\	.	.	.	.	.	.	.
8D\J	.	.	.	.	.	8dd\	et
=16	=16	=16	=16	=16	=16	=16	=16
8E\L	6#	4.ryy	4.ryy	4.ryy	4.ryy	16.cc#X\	fi-
.	.	.	.	.	.	32ee\	-li-
8F#\	6	.	.	.	.	8dd\	-us
8D\J	5	.	.	.	.	8ff#\	an-
=17	=17	=17	=17	=17	=17	=17	=17
*	*above	*	*	*	*	*	*
!LO:LB:g=original	!	!	!	!	!	!	!
8C#X\L	6 5	4.ryy	4.ryy	4.ryy	4.ryy	16.ee\LL	-cil-
.	.	.	.	.	.	32gg\JJk	.
8D\	.	.	.	.	.	8ff#\	-lae
8F#\J	6	.	.	.	.	8aa\	an-
=18	=18	=18	=18	=18	=18	=18	=18
*	*below	*	*	*	*	*	*
!	!	!	!	!	!	!LO:LB:g=original	!
8G\L	9	4.ryy	4.ryy	4.ryy	4.ryy	8aa\L	-cil-
8G\	8	.	.	.	.	8b\J	-lae
8G\J	6	.	.	.	.	8gg\	.
=19	=19	=19	=19	=19	=19	=19	=19
8A\L	6 4	4.ryy	4.ryy	4.ryy	4.ryy	16.ff#\LL	tu-
.	.	.	.	.	.	32gg\JJk	.
8A\	5 3#	.	.	.	.	4ee^^\	.
8A\J	.	.	.	.	.	.	.
=20	=20	=20	=20	=20	=20	=20	=20
!LO:TX:t=P:problem:mixedbeam	!	!	!	!	!	!	!
8D/L	.	4.ryy	4.ryy	4.ryy	4.ryy	4dd\	-ae
16d\L	.	.	.	.	.	.	.
16e\	.	.	.	.	.	.	.
16d\	.	.	.	.	.	8r	.
16c\JJ	.	.	.	.	.	.	.
=21	=21	=21	=21	=21	=21	=21	=21
*	*above	*	*	*	*	*	*
8B\L	6	4.ryy	4.ryy	4.ryy	4.ryy	8r	.
16B\L	.	.	.	.	.	8r	.
16c\	.	.	.	.	.	.	.
16B\	.	.	.	.	.	8dd\	ò
16A\JJ	.	.	.	.	.	.	.
=22	=22	=22	=22	=22	=22	=22	=22
8G\L	.	4.ryy	4.ryy	4.ryy	4.ryy	8.b\	Do-
8G\	.	.	.	.	.	.	.
.	.	.	.	.	.	16cc\	-mi-
8G\J	.	.	.	.	.	8dd\	-ne
=23	=23	=23	=23	=23	=23	=23	=23
*	*below	*	*	*	*	*	*
!LO:PB:g=original	!	!	!	!	!	!LO:LB:g=original	!
8BB/L	.	4.ryy	4.ryy	4.ryy	4.ryy	4g/	qui-
8BB/	6	.	.	.	.	.	.
8BB/J	.	.	.	.	.	8b\	-a
=24	=24	=24	=24	=24	=24	=24	=24
8C/L	.	4.ryy	4.ryy	4.ryy	4.ryy	4a\	e-
8C/	6	.	.	.	.	.	.
8C/J	.	.	.	.	.	8a\	-go
=25	=25	=25	=25	=25	=25	=25	=25
8D/L	.	4.ryy	4.ryy	4.ryy	4.ryy	8a\L	ser-
8D/	7 3#	.	.	.	.	8b\J	.
8D/J	.	.	.	.	.	8cc\	-uus
=26	=26	=26	=26	=26	=26	=26	=26
!LO:TX:t=P:problem:mixedbeam	!	!	!	!	!	!	!
8GG/L	9 4	4.ryy	4.ryy	4.ryy	4.ryy	8cc\	tu-
8G\	8 3	.	.	.	.	8b\	-us
8F#\J	6	.	.	.	.	8r	.
=27	=27	=27	=27	=27	=27	=27	=27
8E\L	5	4.ryy	4.ryy	4.ryy	4.ryy	4gg\	e-
8E\	.	.	.	.	.	.	.
8D\J	6	.	.	.	.	8ff#\	-go
=28	=28	=28	=28	=28	=28	=28	=28
!LO:TX:t=P:problem:mixedbeam	!	!	!	!	!	!LO:LB:g=original	!
8C/L	5	4.ryy	4.ryy	4.ryy	4.ryy	4ee\	Ser-
8c\	.	.	.	.	.	.	.
8B\J	6	.	.	.	.	8dd\	-uus
=29	=29	=29	=29	=29	=29	=29	=29
8A\L	6	4.ryy	4.ryy	4.ryy	4.ryy	4.cc^^\	tu-
8F#\	5	.	.	.	.	.	.
8D\J	7	.	.	.	.	.	.
=30	=30	=30	=30	=30	=30	=30	=30
!LO:TX:t=P:problem:mixedbeam	!	!	!	!	!	!	!
!LO:LB:g=original	!	!	!	!	!	!	!
8G\L	.	4.ryy	4.ryy	4.ryy	4.ryy	4b\	-us
8GG/	.	.	.	.	.	.	.
8GG/J	.	.	.	.	.	8dd\	et
=31	=31	=31	=31	=31	=31	=31	=31
8G\L	.	4.ryy	4.ryy	4.ryy	4.ryy	8.b\	fi-
8G\	.	.	.	.	.	.	.
.	.	.	.	.	.	16cc\	-li-
8G\J	.	.	.	.	.	8dd\	-us
=32	=32	=32	=32	=32	=32	=32	=32
8Fn\L	4n 2	4.ryy	4.ryy	4.ryy	4.ryy	8ffn\	an-
8F\	.	.	.	.	.	8dd\	-cil-
8F\J	.	.	.	.	.	8b\	-lae
=33	=33	=33	=33	=33	=33	=33	=33
!	!	!	!	!	!	!LO:LB:g=original	!
8E\L	.	4.ryy	4.ryy	4.ryy	4.ryy	8cc\	tu-
8E\	6	.	.	.	.	8cc\	-ae
8E\J	.	.	.	.	.	8ee\	et
=34	=34	=34	=34	=34	=34	=34	=34
8A\L	.	4.ryy	4.ryy	4.ryy	4.ryy	8.cc#X\	fi-
8A\	3#	.	.	.	.	.	.
.	.	.	.	.	.	16dd\	-li-
8A\J	.	.	.	.	.	8ee\	-us
=35	=35	=35	=35	=35	=35	=35	=35
8G\L	.	4.ryy	4.ryy	4.ryy	4.ryy	8gg\	an-
8G\	4# 2	.	.	.	.	8ee\	-cil-
8G\J	.	.	.	.	.	8cc#X\	-lae
=36	=36	=36	=36	=36	=36	=36	=36
!LO:LB:g=original	!	!	!	!	!	!	!
8F#\L	.	4.ryy	4.ryy	4.ryy	4.ryy	8dd\	tu-
8F#\	.	.	.	.	.	8dd\	-ae
8F#\J	.	.	.	.	.	8r	.
=37	=37	=37	=37	=37	=37	=37	=37
!	!	!	!	!	!	!LO:LB:g=original	!
8E\L	6n	4.ryy	4.ryy	4.ryy	4.ryy	16.cc\	fi-
.	.	.	.	.	.	32ee\	-li-
8F#\	6	.	.	.	.	8dd\	-us
8D\J	7	.	.	.	.	8cc\	ac-
=38	=38	=38	=38	=38	=38	=38	=38
8G\L	.	4.ryy	4.ryy	4.ryy	4.ryy	8b\L	-cil-
8F#\	.	.	.	.	.	8a\J	-lae
8D\J	7	.	.	.	.	8cc\	.
=39	=39	=39	=39	=39	=39	=39	=39
8G\L	.	4.ryy	4.ryy	4.ryy	4.ryy	[4.b\	tu-
8G\	.	.	.	.	.	.	.
8G\J	.	.	.	.	.	.	.
=40	=40	=40	=40	=40	=40	=40	=40
8C#X/L	.	4.ryy	4.ryy	4.ryy	4.ryy	4.b\]	.
8C#/	5	.	.	.	.	.	.
8C#/J	7	.	.	.	.	.	.
=41	=41	=41	=41	=41	=41	=41	=41
16D\LL	.	4.ryy	4.ryy	4.ryy	4.ryy	4a\	-ae
16F#\	.	.	.	.	.	.	.
16A\	.	.	.	.	.	.	.
16d\	.	.	.	.	.	.	.
16A\	.	.	.	.	.	8r	.
16F#\JJ	.	.	.	.	.	.	.
=42	=42	=42	=42	=42	=42	=42	=42
!	!	!	!	!	!	!LO:TX:b:i:t=2	!
!LO:LB:g=original	!	!	!	!	!	!LO:N:vis=0	!
8D/L	.	4.ryy	4.ryy	4.ryy	4.ryy	2.r	.
8D/	.	.	.	.	.	.	.
8D/J	.	.	.	.	.	.	.
=43	=43	=43	=43	=43	=43	=43	=43
4D/	.	4.ryy	4.ryy	4.ryy	4.ryy	.	.
8r	.	.	.	.	.	.	.
==	==	==	==	==	==	==	==
*-	*-	*-	*-	*-	*-	*-	*-
!!!system-decoration: [(s1,s2,s3,s4,s5)][(s6)]
!!!EED: Andrzej Borzym
!!!EST: 2021-03-25
!!!AIN: 1 alto 1 empty 1 organ 1 tenor 2 vox
!!!ENC: Anastazja Marusiak
!!!END: 2021-03-16
